packages/kaspersky-hexa-ui-icons/src/iconsSVGs/24/Active1.svg

<svg width="24" height="24" viewBox="0 0 24 24" fill="none" xmlns="http://www.w3.org/2000/svg">
<path d="M16.2384 10.4801C16.6289 10.0895 16.6289 9.45638 16.2384 9.06586C15.8478 8.67533 15.2147 8.67533 14.8242 9.06586L11.0772 12.8128L9.46883 11.2045C9.0783 10.8139 8.44514 10.8139 8.05461 11.2045C7.66409 11.595 7.66409 12.2281 8.05461 12.6187L10.3701 14.9341C10.5576 15.1217 10.812 15.227 11.0772 15.227C11.3424 15.227 11.5968 15.1217 11.7843 14.9341L16.2384 10.4801Z" fill="black"/>
<path fill-rule="evenodd" clip-rule="evenodd" d="M2 5C2 3.34315 3.34315 2 5 2H19C20.6569 2 22 3.34315 22 5V19C22 20.6569 20.6569 22 19 22H5C3.34315 22 2 20.6569 2 19V5ZM5 4H19C19.5523 4 20 4.44771 20 5V19C20 19.5523 19.5523 20 19 20H5C4.44772 20 4 19.5523 4 19V5C4 4.44772 4.44771 4 5 4Z" fill="black"/>
</svg>

<svg xmlns="http://www.w3.org/2000/svg" width="24" height="24" fill="none" viewBox="0 0 24 24"><path fill="#000" d="M16.2384 10.4801c.3905-.3906.3905-1.0237 0-1.4142-.3906-.3906-1.0237-.3906-1.4142 0l-3.747 3.7469-1.6084-1.6083c-.3905-.3906-1.0237-.3906-1.4142 0s-.3905 1.0236 0 1.4142l2.3155 2.3154a.9997.9997 0 0 0 1.4142 0z"/><path fill="#000" fill-rule="evenodd" d="M2 5c0-1.6568 1.3432-3 3-3h14c1.6569 0 3 1.3432 3 3v14c0 1.6569-1.3431 3-3 3H5c-1.6568 0-3-1.3431-3-3zm3-1h14c.5523 0 1 .4477 1 1v14c0 .5523-.4477 1-1 1H5c-.5523 0-1-.4477-1-1V5c0-.5523.4477-1 1-1" clip-rule="evenodd"/></svg>
